icons/core/folder.svg

<svg width="32" height="32" viewBox="0 0 32 32" xmlns="http://www.w3.org/2000/svg"><path fill-rule="evenodd" clip-rule="evenodd" d="M1.99976 6.00014C1.99975 4.89556 2.89518 4.00012 3.99976 4.00012H10.5858C11.1162 4.00012 11.6249 4.21084 12 4.58591L15.4142 8.00015H27.9998C29.1044 8.00015 29.9998 8.89558 29.9998 10.0002V26C29.9998 27.1046 29.1044 28 27.9998 28H3.99989C2.89533 28 1.9999 27.1046 1.99989 26L1.99976 6.00014ZM3.99976 6.00012V6.00012L3.99989 26L27.9998 26V10.0002H15.4142C14.8838 10.0002 14.3751 9.78944 14 9.41436L10.5858 6.00012H3.99976Z"/></svg>

<svg viewBox="0 0 32 32" xmlns="http://www.w3.org/2000/svg"><path fill-rule="evenodd" d="M2 6a2 2 0 012-2h6.586A2 2 0 0112 4.586L15.414 8H28a2 2 0 012 2v16a2 2 0 01-2 2H4a2 2 0 01-2-2V6zm2 0v20h24V10H15.414A2 2 0 0114 9.414L10.586 6H4z"/></svg>
